X:1
T:Himno Nacional de Guatemala
T:Himno Nacional de Guatemala
T:Música: Rafael Alvarez Ovalle Letra: José Joaquín Palma
T:Transcripción y Arreglo: Alberto Betancourt
T:Transcripción: Alberto Betancourt
T:Transcripción: Alberto Betancourt
T:Transcripción: Alberto Betancourt
C:Rafael Alvarez
Z:Transcripción: Alberto Betancourt
%%score { ( 1 3 ) | 2 }
L:1/8
Q:1/4=90
M:4/4
K:D
V:1 treble nm="MusicXML Part"
V:3 treble 
V:2 bass 
V:1
"^Maestoso" !3!A2 z !3!A/!2!A/ !1!A2 z !3!A/!2!A/ | %1
 !1!A!3!A/!2!A/ !1!A!3!A/!2!A/ !1!A!3!A/!2!A/ !1!A!3!A/!2!A/ | !1!A2"A7" [CA]2 [DB]2 [Gc]2 | %3
"D" [Fd]2"Ddim" [^Ed]2"D" [Fd]2 df |"D" a2 f>d"E7" e2"A7" ef |"D" d4 A2 dd |"G" b2 aa"Em" g2 ff | %7
"A" e6 ee |"Em7" e2 gg"A7" g2 fe |"D" f3 g a2 dd |"G" g2"Gm" gg"D" f2"A7" fe | %11
"D" [FA]2 [FA][FA] [FA]2"^Voz" AA |:"A7" [ce]2 AA"D" [df]2 [fa][fa] |"A7" a3 g"D" f2"Bm" fa | %14
"E7" ^g2 fe d2 Be |"A" [EA]2 [EA]2 z [CA][DB][Gc] |"D" d2 dd"Bm" d2 cd |"F#7" f3 e"Bm" d2"Bb+" df | %18
"D" a2"G" bg"D" fa"A7"ge |"D" d6 AA |"A7" [ce]2 AA"D" [df]2 [fa][fa] |"A7" a3 g"D" f2"Bm" fa | %22
"E7" ^g2 fe d2 Be |"A" [EA]2 [EA]2 z [CA][DB][Gc] |"D" d2 dd"Bm" d2 cd |"F#7" f3 e"Bm" d2"Bb+" df | %26
"D" a2"G" bg"D" fa"A7"ge |"D" d6"^Coro" df |"D" a2 f>d"E7" e2"A7" ef |"D" d4 A2 dd | %30
"G" b2 aa"Em" g2 ff |"A" e6 ee ||"Em7" e2 gg"A7" g2 fe |"D" f3 g a2 dd | %34
"G" g2"Gm" gg"D" f2"A7" fe |"D" d6 AA ::"A7" [ce]2 AA"D" [df]2 [fa][fa] |"A7" a3 g"D" f2"Bm" fa | %38
"E7" ^g2 fe d2 Be |"A" [EA]2 [EA]2 z [CA][DB][Gc] |"D" d2 dd"Bm" d2 cd |"F#7" f3 e"Bm" d2"Bb+" df | %42
"D" a2"G" bg"D" fa"A7"ge |"D" d6 AA |"A7" [ce]2 AA"D" [df]2 [fa][fa] |"A7" a3 g"D" f2"Bm" fa | %46
"E7" ^g2 fe d2 Be |"A" [EA]2 [EA]2 z [CA][DB][Gc] |"D" d2 dd"Bm" d2 cd |"F#7" f3 e"Bm" d2"Bb+" df | %50
"D" a2"G" bg"D" fa"A7"ge |"D" d6"^Coro" df |"D" a2 f>d"E7" e2"A7" ef |"D" d4 A2 dd | %54
"G" b2 aa"Em" g2 ff |"A" e6 ee |1"Em7" e2 gg"A7" g2 fe |"D" f3 g a2 dd | %58
"G" g2"Gm" gg"D" f2"A7" fe |"D" d6 AA :|2"Em7""_Ritardando" e2 gg"A7"[Q:1/4=88] g2 fe || %61
"D"[Q:1/4=86] f3 g[Q:1/4=84] a2 dd |"G"[Q:1/4=82] g2"Gm" gg"D"[Q:1/4=80] f2"A7" fe | %63
"D"[Q:1/4=78] d6 z2 |] %64
V:2
"^Piano" !3!A,2 z !3!A,/!2!A,/ !1!!1!A,2 z !3!A,/!2!A,/ | %1
 !1!A,!3!A,/!2!A,/ !1!A,!3!A,/!2!A,/ !1!A,!3!A,/!2!A,/ !1!A,!3!A,/!2!A,/ | !1!A,2 G,2 F,2 E,2 | %3
 [D,A,]2 [D,^G,]2 [D,A,]2 z2 | D,2 F,2 [B,D]2 [A,C]2 | [D,D]2 !3!F,!2!A, !1!D2 F,2 | %6
 !1!G,2 F,2 E,2 D,2 | !5!C,!1!A,!2!E,!3!C, !5!A,,2 !1!A,2 | !2!G,2 !3!E,2 !4!C,2 !5!A,,2 | %9
 !3!D,2 E,2 F,2 !2!=C,2 | !3!B,,2 !4!_B,,2 !5!A,,2 [A,,G,]2 | !5!D,!1!D!2!A,!3!F, !5!D,2 z2 |: %12
"^Voz" A,2 G,2 F,2 D,2 | C,2 A,,2 D,2 B,,2 | E,2 ^G,B, E2 D2 | [A,C]2 C>B, A,G,F,E, | %16
 [D,D]2 C2 B,4 | ^A,!5!F,^G,A, B,2 _B,2 | A,2 G,2 A,2 C,2 | D,DA,F, D,2 z2 | A,2 G,2 F,2 D,2 | %21
 !3!C,2 !5!A,,2 !2!D,2 !4!B,,2 | !1!E,2 ^G,B, E2 D2 | [A,C]2 C>B, !1!A,G,F,E, | [D,D]2 C2 B,4 | %25
 ^A,!5!F,^G,A, B,2 _B,2 | A,2 G,2 A,2 !5!C,2 | !4!D,D!2!A,!3!F, D,2 z2 | %28
 [D,F,]2 [F,A,]2 [B,D]2 [A,C]2 | [D,D]2 F,A, D2 F,2 | G,2 F,2 E,2 D,2 | C,A,E,C, A,,2 A,2 || %32
 G,2 E,2 C,2 A,,2 | D,2 E,2 F,2 =C,2 | B,,2 _B,,2 A,,2 [A,,G,]2 | !5!D,!1!DA,F, D,2 z2 :: %36
 A,2 G,2 F,2 D,2 | C,2 A,,2 D,2 B,,2 | !1!E,2 ^G,B, E2 D2 | [A,C]2 C>B, A,G,F,E, | [D,D]2 C2 B,4 | %41
 ^A,!5!F,^G,A, B,2 _B,2 | A,2 G,2 A,2 !5!C,2 | D,DA,F, D,2 z2 | A,2 G,2 F,2 D,2 | %45
 C,2 A,,2 D,2 B,,2 | E,2 ^G,B, E2 D2 | [A,C]2 C>B, A,G,F,E, | [D,D]2 C2 B,4 | %49
 ^A,!5!F,^G,A, B,2 _B,2 | A,2 G,2 A,2 !5!C,2 | D,DA,F, D,2 z2 | [D,F,]2 [F,A,]2 [B,D]2 [A,C]2 | %53
 [D,D]2 F,A, D2 F,2 | G,2 F,2 E,2 D,2 | C,A,E,C, A,,2 A,2 |1 G,2 E,2 C,2 A,,2 | D,2 E,2 F,2 =C,2 | %58
 B,,2 _B,,2 A,,2 [A,,G,]2 | !5!D,!1!D,A,,F,, D,,2 z2 :|2 G,2 E,2 C,2 A,,2 || D,2 E,2 F,2 =C,2 | %62
 B,,2 _B,,2 A,,2 [A,,G,]2 | !5!D,!1!D,A,,F,, D,,2 z2 |] %64
V:3
 x8 | x8 | x8 | x8 | A4 ^G2 =G2 | F4 F2 A2 | [Bd]4 [GB]4 | [Ac]2 [Ac][Ac] [Ac]2 z2 | [GB]4 [Ac]4 | %9
 [Ad]4 [Ad]2 [FA]2 | [Gd]4 [Ad]2 [Ac]2 | d6 z2 |: x8 | [Ae]4 [Ad]2 [Bd]2 | [Bd]4 [E^G]4 | x8 | %16
 [FA]4 [FB]4 | [Fc]4 [FB]2 F2 | [df]2 [dg]e [Ad]2 A2 | [FA]2 [FA][FA] [FA]2 z2 | x8 | %21
 [Ae]4 [Ad]2 [Bd]2 | [Bd]4 [E^G]4 | x8 | [FA]4 [FB]4 | [Fc]4 [FB]2 F2 | [df]2 [dg]e [Ad]2 A2 | %27
 F2 [FA][FA] [FA]2 z2 | A4 ^G2 =G2 | F4 F2 A2 | [Bd]4 [GB]4 | [Ac]2 [Ac][Ac] [Ac]2 z2 || %32
 [GB]4 [Ac]4 | [Ad]4 [Ad]2 [FA]2 | [Gd]4 [Ad]2 [Ac]2 | [FA]2 [FA][FA] [FA]2 z2 :: x8 | %37
 [Ae]4 [Ad]2 [Bd]2 | [Bd]4 [E^G]4 | x8 | [FA]4 [FB]4 | [Fc]4 [FB]2 F2 | [df]2 [dg]e [Ad]2 A2 | %43
 [FA]2 [FA][FA] [FA]2 z2 | x8 | [Ae]4 [Ad]2 [Bd]2 | [Bd]4 [E^G]4 | x8 | [FA]4 [FB]4 | %49
 [Fc]4 [FB]2 F2 | [df]2 [dg]e [Ad]2 A2 | F2 [FA][FA] [FA]2 z2 | A4 ^G2 =G2 | F4 F2 A2 | %54
 [Bd]4 [GB]4 | [Ac]2 [Ac][Ac] [Ac]2 z2 |1 [GB]4 [Ac]4 | [Ad]4 [Ad]2 [FA]2 | [Gd]4 [Ad]2 [Ac]2 | %59
 [FA]2 [FA][FA] [FA]2 z2 :|2 [GB]4 [Ac]4 || [Ad]4 [Ad]2 [FA]2 | [Gd]4 [Ad]2 [Ac]2 | %63
 [FA]2 [FA][FA] [FA]2 z2 |] %64

